packages/core/src/svgs/id.svg

<svg width="24" height="24" viewBox="0 0 24 24" fill="none" xmlns="http://www.w3.org/2000/svg">
<g clip-path="url(#clip0_31_11700)">
<path d="M0 0H24V24H0V0Z" fill="#181B1E"/>
<path fill-rule="evenodd" clip-rule="evenodd" d="M9.61715 5.14307C9.08135 5.14755 8.55168 5.25753 8.05839 5.46672C7.56509 5.67591 7.11784 5.98022 6.74215 6.36227C6.36647 6.74432 6.06972 7.19663 5.86885 7.69337C5.66797 8.19011 5.56691 8.72155 5.57143 9.25735V14.7431C5.57143 17.0145 7.38001 18.8574 9.61715 18.8574H14.3829C16.62 18.8574 18.4286 17.0145 18.4286 14.7431V9.25735C18.4286 6.98592 16.62 5.14307 14.3829 5.14307H9.61715ZM9.59143 6.85735C8.31858 6.85735 7.28572 7.95878 7.28572 9.32164V14.6788C7.28572 16.0416 8.31858 17.1431 9.59143 17.1431H14.4086C15.6814 17.1431 16.7143 16.0416 16.7143 14.6788V9.32164C16.7143 7.95878 15.6814 6.85735 14.4086 6.85735H9.59143Z" fill="#1AED9E"/>
<path d="M12.8572 10.5087C12.8572 9.90871 13.3415 9.42871 13.9372 9.42871H14.3486C14.9486 9.42871 15.4286 9.913 15.4286 10.5087V10.9201C15.4286 11.5201 14.9443 12.0001 14.3486 12.0001H13.9372C13.6507 12.0001 13.376 11.8864 13.1735 11.6838C12.971 11.4813 12.8572 11.2066 12.8572 10.9201V10.5087ZM12.8572 14.3659C12.8572 13.7659 13.3415 13.2859 13.9372 13.2859H14.3486C14.9486 13.2859 15.4286 13.7701 15.4286 14.3659V14.7773C15.4286 15.3773 14.9443 15.8573 14.3486 15.8573H13.9372C13.7954 15.8573 13.6549 15.8293 13.5239 15.7751C13.3928 15.7208 13.2738 15.6412 13.1735 15.541C13.0732 15.4407 12.9937 15.3216 12.9394 15.1906C12.8851 15.0595 12.8572 14.9191 12.8572 14.7773V14.3659Z" fill="#1AED9E"/>
</g>
<defs>
<clipPath id="clip0_31_11700">
<rect width="24" height="24" fill="white"/>
</clipPath>
</defs>
</svg>

<svg xmlns="http://www.w3.org/2000/svg" width="24" height="24" fill="none" viewBox="0 0 24 24"><g clip-path="url(#a)"><path fill="#181B1E" d="M0 0h24v24H0z"/><path fill="#1AED9E" fill-rule="evenodd" d="M9.617 5.143a4.08 4.08 0 0 0-4.046 4.114v5.486c0 2.272 1.809 4.114 4.046 4.114h4.766c2.237 0 4.046-1.842 4.046-4.114V9.257c0-2.271-1.809-4.114-4.046-4.114zm-.026 1.714c-1.272 0-2.305 1.102-2.305 2.465v5.357c0 1.363 1.033 2.464 2.305 2.464h4.818c1.272 0 2.305-1.101 2.305-2.464V9.322c0-1.363-1.033-2.465-2.305-2.465z" clip-rule="evenodd"/><path fill="#1AED9E" d="M12.857 10.509c0-.6.485-1.08 1.08-1.08h.412c.6 0 1.08.484 1.08 1.08v.411c0 .6-.485 1.08-1.08 1.08h-.412a1.08 1.08 0 0 1-1.08-1.08zm0 3.857c0-.6.485-1.08 1.08-1.08h.412c.6 0 1.08.484 1.08 1.08v.411c0 .6-.485 1.08-1.08 1.08h-.412a1.08 1.08 0 0 1-1.08-1.08z"/></g><defs><clipPath id="a"><path fill="#fff" d="M0 0h24v24H0z"/></clipPath></defs></svg>
